svg/mcv4u/derivatives.svg

<svg xmlns="http://www.w3.org/2000/svg" viewBox="0 0 688.643 303.412" xml:space="preserve"><path fill="none" stroke="#CCC" stroke-miterlimit="10" d="M251.618 179.282v122m-50-122v122m-50-122v122m-50-122v122m-50-122v122m200-300v160m-50-160v160m-50-160v160m-50-160v160m-50-160v160m67.5 40.5h-118m118 50h-118m300-50h-159m159 50h-159m-13-200h-128m128 50h-128m300-50h-159m159 50h-159"/><path fill="none" stroke="#000" stroke-miterlimit="10" d="M151.618 295.282v-288"/><path d="m155.159 292.928-3.703 1.573-3.703-1.573 3.703 8.778zm0-282.944-3.703-1.573-3.703 1.573 3.703-8.778z"/><path fill="none" stroke="#000" stroke-miterlimit="10" d="M295.118 151.782h-288"/><path d="m292.178 148.003 1.573 3.703-1.573 3.703 8.778-3.703zm-281.944 0-1.573 3.703 1.573 3.703-8.778-3.703z"/><text transform="translate(305.568 157.506)" font-family="'Equity Text B'" font-style="italic" font-size="24">x</text><text transform="translate(238.82 22.527)"><tspan x="0" y="0" font-family="'Equity Text B'" font-style="italic" font-size="24" letter-spacing="2">f</tspan><tspan x="9.384" y="0" font-family="'Equity Text B'" font-size="24">(</tspan><tspan x="17.231" y="0" font-family="'Equity Text B'" font-style="italic" font-size="24">x</tspan><tspan x="27.815" y="0" font-family="'Equity Text B'" font-size="24">)</tspan></text><text transform="translate(262.736 88.786)"><tspan x="0" y="0" font-family="'Equity Text B'" font-style="italic" font-size="24" letter-spacing="2">f</tspan><tspan x="9.384" y="0" font-family="'Equity Text B'" font-style="italic" font-size="24">′</tspan><tspan x="16.344" y="0" font-family="'Equity Text B'" font-size="24">(</tspan><tspan x="24.191" y="0" font-family="'Equity Text B'" font-style="italic" font-size="24">x</tspan><tspan x="34.775" y="0" font-family="'Equity Text B'" font-size="24">)</tspan></text><path fill="none" stroke="#000" stroke-miterlimit="10" d="M151.118 51.782h-5m5 50h-5m5 50h-5m5 50h-5m5 50h-5m105.5-99.5v5m-50-5v5m-50-5v5m-50-5v5m-50-5v5"/><text transform="translate(43.296 175.35)" font-family="'Concourse T3'" font-size="16">−2</text><text transform="translate(123.515 257.28)" font-family="'Concourse T3'" font-size="16">−2</text><text transform="translate(124.956 207.28)" font-family="'Concourse T3'" font-size="16">−1</text><text transform="translate(133.036 107.28)" font-family="'Concourse T3'" font-size="16">1</text><text transform="translate(131.595 57.28)" font-family="'Concourse T3'" font-size="16">2</text><text transform="translate(94.462 175.35)" font-family="'Concourse T3'" font-size="16">−1</text><text transform="translate(197.662 175.35)" font-family="'Concourse T3'" font-size="16">1</text><text transform="translate(246.962 175.35)" font-family="'Concourse T3'" font-size="16">2</text><path fill="none" stroke="#FF5000" stroke-width="2" stroke-miterlimit="10" d="M7.118 101.282h288"/><path fill="#FF5000" d="m9.896 104.985-1.573-3.703 1.573-3.703-8.778 3.703zm282.444 0 1.573-3.703-1.573-3.703 8.778 3.703z"/><path fill="none" stroke="#000" stroke-width="2" stroke-miterlimit="10" d="M4.218 299.187 298.694 4.225"/><path d="m8.823 299.816-3.732-1.503-1.51-3.73L0 303.412zM299.331 8.829l-1.509-3.73-3.733-1.503L302.912 0z"/><path fill="none" stroke="#CCC" stroke-miterlimit="10" d="M623.618 179.282v122m-50-122v122m-50-122v122m-50-122v122m-50-122v122m200-300v160m-50-160v160m-50-160v160m-50-160v160m-50-160v160m67.5 40.5h-118m118 50h-118m300-50h-159m159 50h-159m-13-200h-128m128 50h-128m300-50h-159m159 50h-159"/><path fill="none" stroke="#000" stroke-miterlimit="10" d="M523.618 295.282v-288"/><path d="m527.159 292.928-3.703 1.573-3.703-1.573 3.703 8.778zm0-282.944-3.703-1.573-3.703 1.573 3.703-8.778z"/><path fill="none" stroke="#000" stroke-miterlimit="10" d="M667.118 151.782h-288"/><path d="m664.178 148.003 1.573 3.703-1.573 3.703 8.778-3.703zm-281.944 0-1.573 3.703 1.573 3.703-8.778-3.703z"/><text transform="translate(677.568 157.506)" font-family="'Equity Text B'" font-style="italic" font-size="24">x</text><text transform="translate(425.519 87.586)"><tspan x="0" y="0" font-family="'Equity Text B'" font-style="italic" font-size="24">g</tspan><tspan x="9.647" y="0" font-family="'Equity Text B'" font-size="24">(</tspan><tspan x="17.495" y="0" font-family="'Equity Text B'" font-style="italic" font-size="24">x</tspan><tspan x="28.079" y="0" font-family="'Equity Text B'" font-size="24">)</tspan></text><text transform="translate(428.519 241.456)"><tspan x="0" y="0" font-family="'Equity Text B'" font-style="italic" font-size="24">g′</tspan><tspan x="16.607" y="0" font-family="'Equity Text B'" font-size="24">(</tspan><tspan x="24.455" y="0" font-family="'Equity Text B'" font-style="italic" font-size="24">x</tspan><tspan x="35.039" y="0" font-family="'Equity Text B'" font-size="24">)</tspan></text><path fill="none" stroke="#000" stroke-miterlimit="10" d="M523.118 51.782h-5m5 50h-5m5 50h-5m5 50h-5m5 50h-5m105.5-99.5v5m-50-5v5m-50-5v5m-50-5v5m-50-5v5"/><text transform="translate(415.296 175.35)" font-family="'Concourse T3'" font-size="16">−2</text><text transform="translate(495.515 257.28)" font-family="'Concourse T3'" font-size="16">−2</text><text transform="translate(496.956 207.28)" font-family="'Concourse T3'" font-size="16">−1</text><text transform="translate(505.036 107.28)" font-family="'Concourse T3'" font-size="16">1</text><text transform="translate(503.595 57.28)" font-family="'Concourse T3'" font-size="16">2</text><text transform="translate(466.462 175.35)" font-family="'Concourse T3'" font-size="16">−1</text><text transform="translate(569.662 175.35)" font-family="'Concourse T3'" font-size="16">1</text><text transform="translate(618.962 175.35)" font-family="'Concourse T3'" font-size="16">2</text><path fill="none" stroke="#FF5000" stroke-width="2" stroke-miterlimit="10" d="M450.883 296.492 596.038 7.096"/><path fill="#FF5000" d="m455.452 295.641-4.016-.254-2.604-3.066-.626 9.507zM598.089 11.267l-2.605-3.066-4.016-.254 7.246-6.187z"/><path fill="none" stroke="#000" stroke-width="2" stroke-miterlimit="10" d="M590.577 7.716c-1.829 27.873-12.718 144.086-67.121 144.086-54.401 0-65.291-116.202-67.121-144.082"/><path d="m586.701 10.309 3.788-1.356 3.606 1.786-3.187-8.979zm-126.49 0-3.788-1.356-3.605 1.786 3.186-8.979z"/></svg>

<svg xmlns="http://www.w3.org/2000/svg" viewBox="0 0 688.643 303.412" xml:space="preserve"><path fill="none" stroke="#CCC" stroke-miterlimit="10" d="M251.618 179.282v122M201.618 179.282v122M151.618 179.282v122M101.618 179.282v122M51.618 179.282v122M251.618 1.282v160M201.618 1.282v160M151.618 1.282v160M101.618 1.282v160M51.618 1.282v160M119.118 201.782h-118M119.118 251.782h-118M301.118 201.782h-159M301.118 251.782h-159M129.118 51.782h-128M129.118 101.782h-128M301.118 51.782h-159M301.118 101.782h-159"/><path fill="none" stroke="#000" stroke-miterlimit="10" d="M151.618 295.282v-288"/><path fill="#000" d="m155.159 292.928-3.703 1.573-3.703-1.573 3.703 8.778zM155.159 9.984l-3.703-1.573-3.703 1.573 3.703-8.778z"/><path fill="none" stroke="#000" stroke-miterlimit="10" d="M295.118 151.782h-288"/><path fill="#000" d="m292.178 148.003 1.573 3.703-1.573 3.703 8.778-3.703zM10.234 148.003l-1.573 3.703 1.573 3.703-8.778-3.703z"/><text transform="translate(305.568 157.506)" font-family="'Equity Text B'" font-style="italic" font-size="24">x</text><text transform="translate(238.82 22.527)"><tspan x="0" y="0" font-family="'Equity Text B'" font-style="italic" font-size="24" letter-spacing="2">f</tspan><tspan x="9.384" y="0" font-family="'Equity Text B'" font-size="24">(</tspan><tspan x="17.231" y="0" font-family="'Equity Text B'" font-style="italic" font-size="24">x</tspan><tspan x="27.815" y="0" font-family="'Equity Text B'" font-size="24">)</tspan></text><text transform="translate(262.736 88.786)"><tspan x="0" y="0" font-family="'Equity Text B'" font-style="italic" font-size="24" letter-spacing="2">f</tspan><tspan x="9.384" y="0" font-family="'Equity Text B'" font-style="italic" font-size="24">′</tspan><tspan x="16.344" y="0" font-family="'Equity Text B'" font-size="24">(</tspan><tspan x="24.191" y="0" font-family="'Equity Text B'" font-style="italic" font-size="24">x</tspan><tspan x="34.775" y="0" font-family="'Equity Text B'" font-size="24">)</tspan></text><path fill="none" stroke="#000" stroke-miterlimit="10" d="M151.118 51.782h-5M151.118 101.782h-5M151.118 151.782h-5M151.118 201.782h-5M151.118 251.782h-5M251.618 152.282v5M201.618 152.282v5M151.618 152.282v5M101.618 152.282v5M51.618 152.282v5"/><text transform="translate(43.296 175.35)" font-family="'Concourse T3'" font-size="16">−2</text><text transform="translate(123.515 257.28)" font-family="'Concourse T3'" font-size="16">−2</text><text transform="translate(124.956 207.28)" font-family="'Concourse T3'" font-size="16">−1</text><text transform="translate(133.036 107.28)" font-family="'Concourse T3'" font-size="16">1</text><text transform="translate(131.595 57.28)" font-family="'Concourse T3'" font-size="16">2</text><text transform="translate(94.462 175.35)" font-family="'Concourse T3'" font-size="16">−1</text><text transform="translate(197.662 175.35)" font-family="'Concourse T3'" font-size="16">1</text><text transform="translate(246.962 175.35)" font-family="'Concourse T3'" font-size="16">2</text><path fill="none" stroke="#FF5000" stroke-width="2" stroke-miterlimit="10" d="M7.118 101.282h288"/><path fill="#FF5000" d="m9.896 104.985-1.573-3.703 1.573-3.703-8.778 3.703zM292.34 104.985l1.573-3.703-1.573-3.703 8.778 3.703z"/><path fill="none" stroke="#000" stroke-width="2" stroke-miterlimit="10" d="M4.218 299.187 298.694 4.225"/><path fill="#000" d="m8.823 299.816-3.732-1.503-1.51-3.73L0 303.412zM299.331 8.829l-1.509-3.73-3.733-1.503L302.912 0z"/><path fill="none" stroke="#CCC" stroke-miterlimit="10" d="M623.618 179.282v122M573.618 179.282v122M523.618 179.282v122M473.618 179.282v122M423.618 179.282v122M623.618 1.282v160M573.618 1.282v160M523.618 1.282v160M473.618 1.282v160M423.618 1.282v160M491.118 201.782h-118M491.118 251.782h-118M673.118 201.782h-159M673.118 251.782h-159M501.118 51.782h-128M501.118 101.782h-128M673.118 51.782h-159M673.118 101.782h-159"/><path fill="none" stroke="#000" stroke-miterlimit="10" d="M523.618 295.282v-288"/><path fill="#000" d="m527.159 292.928-3.703 1.573-3.703-1.573 3.703 8.778zM527.159 9.984l-3.703-1.573-3.703 1.573 3.703-8.778z"/><path fill="none" stroke="#000" stroke-miterlimit="10" d="M667.118 151.782h-288"/><path fill="#000" d="m664.178 148.003 1.573 3.703-1.573 3.703 8.778-3.703zM382.234 148.003l-1.573 3.703 1.573 3.703-8.778-3.703z"/><text transform="translate(677.568 157.506)" font-family="'Equity Text B'" font-style="italic" font-size="24">x</text><text transform="translate(425.519 87.586)"><tspan x="0" y="0" font-family="'Equity Text B'" font-style="italic" font-size="24">g</tspan><tspan x="9.647" y="0" font-family="'Equity Text B'" font-size="24">(</tspan><tspan x="17.495" y="0" font-family="'Equity Text B'" font-style="italic" font-size="24">x</tspan><tspan x="28.079" y="0" font-family="'Equity Text B'" font-size="24">)</tspan></text><text transform="translate(428.519 241.456)"><tspan x="0" y="0" font-family="'Equity Text B'" font-style="italic" font-size="24">g′</tspan><tspan x="16.607" y="0" font-family="'Equity Text B'" font-size="24">(</tspan><tspan x="24.455" y="0" font-family="'Equity Text B'" font-style="italic" font-size="24">x</tspan><tspan x="35.039" y="0" font-family="'Equity Text B'" font-size="24">)</tspan></text><path fill="none" stroke="#000" stroke-miterlimit="10" d="M523.118 51.782h-5M523.118 101.782h-5M523.118 151.782h-5M523.118 201.782h-5M523.118 251.782h-5M623.618 152.282v5M573.618 152.282v5M523.618 152.282v5M473.618 152.282v5M423.618 152.282v5"/><text transform="translate(415.296 175.35)" font-family="'Concourse T3'" font-size="16">−2</text><text transform="translate(495.515 257.28)" font-family="'Concourse T3'" font-size="16">−2</text><text transform="translate(496.956 207.28)" font-family="'Concourse T3'" font-size="16">−1</text><text transform="translate(505.036 107.28)" font-family="'Concourse T3'" font-size="16">1</text><text transform="translate(503.595 57.28)" font-family="'Concourse T3'" font-size="16">2</text><text transform="translate(466.462 175.35)" font-family="'Concourse T3'" font-size="16">−1</text><text transform="translate(569.662 175.35)" font-family="'Concourse T3'" font-size="16">1</text><text transform="translate(618.962 175.35)" font-family="'Concourse T3'" font-size="16">2</text><path fill="none" stroke="#FF5000" stroke-width="2" stroke-miterlimit="10" d="M450.883 296.492 596.038 7.096"/><path fill="#FF5000" d="m455.452 295.641-4.016-.254-2.604-3.066-.626 9.507zM598.089 11.267l-2.605-3.066-4.016-.254 7.246-6.187z"/><path fill="none" stroke="#000" stroke-width="2" stroke-miterlimit="10" d="M590.577 7.716c-1.829 27.873-12.718 144.086-67.121 144.086-54.401 0-65.291-116.202-67.121-144.082"/><path fill="#000" d="m586.701 10.309 3.788-1.356 3.606 1.786-3.187-8.979zM460.211 10.309l-3.788-1.356-3.605 1.786 3.186-8.979z"/></svg>
